X:1
T:Quick Steps. LW.163
T:Quick Steps. LW.163
T:By T Gibson
C:By T Gibson
L:1/8
Q:3/8=110
M:6/8
K:G
V:1 treble 
V:1
 D | G2 G GFG | e3 d2 B | d2 D F2 D | G2 B dcA | G2 G GFG | e3 dgB | Ace d2 F | AGG G2 :: A | %10
 d3 (A/B/A/G/F/E/) | DFA dfa | gfe AB^c | d/^c/d/e/f/d/ A2 A | B2 ^c edB | %15
 A/F/G/A/B/^c/ d/e/f/g/a/f/ | efg AB^c | d^ce d=cA || G2 G GFG | e3 d2 B | d2 D F2 D | G2 B dcA | %22
 G2 G GFG | e3 dgB | Ace d2 F | AGG G2 || A | B2 A c2 B | A2 ^G A2 B | d2 c BcA | G3 F2 D | %31
 d3 A2 G | c3 B2 A | d2 c dcA | AGG G2 :| %35

